src/assets/icons/ftic/corner-house.svg

<?xml version="1.0" encoding="UTF-8"?>
<svg width="72px" height="31px" viewBox="0 0 72 31" version="1.1" xmlns="http://www.w3.org/2000/svg" xmlns:xlink="http://www.w3.org/1999/xlink">
    <!-- Generator: Sketch 47.1 (45422) - http://www.bohemiancoding.com/sketch -->
    <title>Icon_Hoekwoning</title>
    <desc>Created with Sketch.</desc>
    <defs></defs>
    <g id="DESIGNS" stroke="none" stroke-width="1" fill="none" fill-rule="evenodd">
        <g id="Search-Dropdown-2" transform="translate(-304.000000, -542.000000)" fill-rule="nonzero" fill="#333E48">
            <g id="Verbruik" transform="translate(50.000000, 282.000000)">
                <g id="Hoekwoning" transform="translate(242.000000, 243.000000)">
                    <g id="Icon_Hoekwoning" transform="translate(12.000000, 17.000000)">
                        <path d="M28.35,10.7451471 L28.35,3.64705882 L22.95,3.64705882 L22.95,5.75779412 L16.974,0.0455882353 L0.2835,15.7826471 L3.0105,18.6911765 L4.05,18.6911765 L4.05,31 L30.15,31 L30.15,18.6911765 L31.1265,18.6911765 L33.75,15.7826471 L28.35,10.7451471 Z M20.25,29.1764706 L13.95,29.1764706 L13.95,21.8823529 L20.25,21.8823529 L20.25,29.1764706 Z" id="Shape"></path>
                        <path d="M66.15,10.7451471 L66.15,3.64705882 L61.2,3.64705882 L61.2,5.75779412 L55.3905,0.0455882353 L47.7,7.29411765 L47.7,3.64705882 L41.85,3.64705882 L41.85,5.75779412 L36,0.0455882353 L19.35,15.7826471 L22.1265,18.6911765 L23.4,18.6911765 L23.4,31 L67.95,31 L67.95,18.6911765 L69.363,18.6911765 L71.775,15.7826471 L66.15,10.7451471 Z M38.7,29.1764706 L32.85,29.1764706 L32.85,21.8823529 L38.7,21.8823529 L38.7,29.1764706 Z M58.05,29.1764706 L52.65,29.1764706 L52.65,21.8823529 L58.05,21.8823529 L58.05,29.1764706 Z" id="Shape" opacity="0.7"></path>
                    </g>
                </g>
            </g>
        </g>
    </g>
</svg>

<svg xmlns="http://www.w3.org/2000/svg" viewBox="0 0 72 31"><path d="M28.35 10.745V3.647h-5.4v2.11L16.974.047.284 15.783 3.01 18.69h1.04V31h26.1V18.691h.977l2.623-2.908-5.4-5.038zm-8.1 18.431h-6.3v-7.294h6.3v7.294z"/><path d="M66.15 10.745V3.647H61.2v2.11L55.39.047 47.7 7.294V3.647h-5.85v2.11L36 .047 19.35 15.783l2.776 2.908H23.4V31h44.55V18.691h1.413l2.412-2.908-5.625-5.038zM38.7 29.176h-5.85v-7.294h5.85v7.294zm19.35 0h-5.4v-7.294h5.4v7.294z" opacity=".7"/></svg>
